X: 37155
T: Siobhan O'Donnell's
R: reel
M: 4/4
K: Amajor
|:A2 ce a2 ba|f3 a fece|~f3 e cBAF|EFAB cBAF|
~E3 F A2 ce|~f3 a fece|~f2 ec d/c/BcA|~B2 AB c ~A3:|
|:A2 ce fece|f ~A3 fAeA|f~A3 fAef|a2 fa eAce|
~f3 e cBAF|~E3 F ABce|~f2 ec d/c/BcA|~B2 AB cAAB:|

